X:1     %Music
T:O Waly Waly
B:Journal of the English Folk Dance and Song Society, Dec 1954
F:http://www.folkinfo.org/songs
S:Mrs Caroline Cox, August 8th 1905
Z:Cecil Sharp
M:3/2     %Meter
L:1/8     %
K:G
D2 |G2 (GA) B4 A2 A2 |G2 E2 D6 z2 |G2 F2 G6 A2 |
B2 (cB) (A6G2) |AB c2 d4 c4 |B2 AG B6 A2 |G2 E2 D4 D4 |
D2 EF G6 |]